dist/flags/l/462.svg

<svg width="32" height="24" viewBox="0 0 32 24" fill="none" xmlns="http://www.w3.org/2000/svg">
<mask id="mask0" mask-type="alpha" maskUnits="userSpaceOnUse" x="0" y="0" width="32" height="24">
<rect width="32" height="24" fill="white"/>
</mask>
<g mask="url(#mask0)">
<path fill-rule="evenodd" clip-rule="evenodd" d="M0 0H32V22C32 23.1046 31.1046 24 30 24H2C0.895431 24 0 23.1046 0 22V0Z" fill="#C51918"/>
<path fill-rule="evenodd" clip-rule="evenodd" d="M0 0H32V24H0V0Z" fill="#C51918"/>
<path fill-rule="evenodd" clip-rule="evenodd" d="M6 6H26V18H6V6Z" fill="#579D20"/>
<path d="M7 7H25V17H7V7Z" stroke="#B6EB9A" stroke-opacity="0.238111" stroke-width="2"/>
<mask id="mask1" mask-type="alpha" maskUnits="userSpaceOnUse" x="6" y="6" width="20" height="12">
<path fill-rule="evenodd" clip-rule="evenodd" d="M6 6H26V18H6V6Z" fill="white"/>
<path d="M7 7H25V17H7V7Z" stroke="white" stroke-width="2"/>
</mask>
<g mask="url(#mask1)">
<path fill-rule="evenodd" clip-rule="evenodd" d="M16.033 12.4625C16.016 15.5282 18.4294 17.1628 18.4294 17.1628C15.6755 17.4861 13.8433 14.9895 13.8433 12.4924C13.8433 9.99528 16.3409 7.93254 18.4294 7.0011C18.4294 7.0011 16.05 9.39684 16.033 12.4625Z" fill="#F9FAFA"/>
</g>
</g>
</svg>

<svg width="32" height="24" fill="none" xmlns="http://www.w3.org/2000/svg">
  <mask id="a" maskUnits="userSpaceOnUse" x="0" y="0" width="32" height="24">
    <path fill="#fff" d="M0 0h32v24H0z"/>
  </mask>
  <g mask="url(#a)">
    <path fill-rule="evenodd" clip-rule="evenodd" d="M0 0h32v22a2 2 0 01-2 2H2a2 2 0 01-2-2V0z" fill="#C51918"/>
    <path fill-rule="evenodd" clip-rule="evenodd" d="M0 0h32v24H0V0z" fill="#C51918"/>
    <path fill-rule="evenodd" clip-rule="evenodd" d="M6 6h20v12H6V6z" fill="#579D20"/>
    <path d="M7 7h18v10H7V7z" stroke="#B6EB9A" stroke-opacity=".238" stroke-width="2"/>
    <mask id="b" maskUnits="userSpaceOnUse" x="6" y="6" width="20" height="12">
      <path fill-rule="evenodd" clip-rule="evenodd" d="M6 6h20v12H6V6z" fill="#fff"/>
      <path d="M7 7h18v10H7V7z" stroke="#fff" stroke-width="2"/>
    </mask>
    <g mask="url(#b)">
      <path fill-rule="evenodd" clip-rule="evenodd" d="M16.033 12.463c-.017 3.065 2.396 4.7 2.396 4.7-2.753.323-4.586-2.174-4.586-4.67 0-2.498 2.498-4.56 4.586-5.492 0 0-2.379 2.396-2.396 5.462z" fill="#F9FAFA"/>
    </g>
  </g>
</svg>
